svg/emoji/puzzled_fill.svg

<?xml version="1.0" encoding="UTF-8"?>
<svg width="24px" height="24px" viewBox="0 0 24 24" version="1.1" xmlns="http://www.w3.org/2000/svg" xmlns:xlink="http://www.w3.org/1999/xlink">
    <title>puzzled_fill</title>
    <g id="Icon" stroke="none" stroke-width="1" fill="none" fill-rule="evenodd">
        <g id="Emoji" transform="translate(-528.000000, -48.000000)">
            <g id="puzzled_fill" transform="translate(528.000000, 48.000000)">
                <path d="M24,0 L24,24 L0,24 L0,0 L24,0 Z M12.5935,23.2578 L12.5819,23.2595 L12.5109,23.295 L12.4919,23.2987 L12.4767,23.295 L12.4057,23.2595 C12.3958,23.2564 12.387,23.259 12.3821,23.2649 L12.378,23.2758 L12.3609,23.7031 L12.3659,23.7235 L12.3769,23.7357 L12.4805,23.8097 L12.4953,23.8136 L12.5071,23.8097 L12.6107,23.7357 L12.6233,23.7197 L12.6267,23.7031 L12.6096,23.2758 C12.6076,23.2657 12.601,23.2593 12.5935,23.2578 Z M12.8584,23.1453 L12.8445,23.1473 L12.6598,23.2397 L12.6499,23.2499 L12.6472,23.2611 L12.6651,23.6906 L12.6699,23.7034 L12.6784,23.7105 L12.8793,23.8032 C12.8914,23.8069 12.9022,23.803 12.9078,23.7952 L12.9118,23.7812 L12.8777,23.1665 C12.8753,23.1546 12.8674,23.147 12.8584,23.1453 Z M12.143,23.1473 C12.1332,23.1424 12.1222,23.1453 12.1156,23.1526 L12.1099,23.1665 L12.0758,23.7812 C12.0751,23.7927 12.0828,23.8019 12.0926,23.8046 L12.1083,23.8032 L12.3092,23.7105 L12.3186,23.7024 L12.3225,23.6906 L12.3404,23.2611 L12.3372,23.2485 L12.3278,23.2397 L12.143,23.1473 Z" id="MingCute" fill-rule="nonzero"></path>
                <path d="M12,2 C13.8899,2 15.6574,2.52428 17.1649,3.43532 C17.0578,3.77104 17,4.12877 17,4.5 C17,5.48298 17.7091,6.30033 18.6438,6.46837 L18.6406,6.57812 C18.6406,6.92389 18.7417,7.32949 18.9965,7.68109 C18.6874,8.03316 18.5,8.49469 18.5,9 C18.5,10.1046 19.3954,11 20.5,11 C21.0352,11 21.5213,10.7898 21.8802,10.4474 C21.9591,10.9534 22,11.4719 22,12 C22,17.5228 17.5228,22 12,22 C6.47715,22 2,17.5228 2,12 C2,6.47715 6.47715,2 12,2 Z M14.6839,12.5513 C14.1761,12.7206 13.6476,12.9471 13.1081,13.217 C12.8325,13.3548 12.5641889,13.4987778 12.3069593,13.6448741 L11.9299,13.8651 C11.7072,13.9987 11.5412,14.1044 11.4453,14.1684 C10.9858,14.4748 10.8617,15.0957 11.1681,15.5551 C11.4745,16.0146 12.0954,16.1387 12.5549,15.8323 L12.8494024,15.6463672 L12.9591,15.58 C13.2855,15.384 13.6385,15.1879 14.0027,15.0057 C14.4633,14.7754 14.9073,14.5851 15.3163,14.4487 C15.8403,14.2741 16.1234,13.7077 15.9488,13.1838 C15.7741,12.6599 15.2078,12.3767 14.6839,12.5513 Z M9.5,9 C8.67157,9 8,9.67157 8,10.5 C8,11.3284 8.67157,12 9.5,12 C10.3284,12 11,11.3284 11,10.5 C11,9.67157 10.3284,9 9.5,9 Z M14.5,7 C13.6716,7 13,7.67157 13,8.5 C13,9.32843 13.6716,10 14.5,10 C15.3284,10 16,9.32843 16,8.5 C16,7.67157 15.3284,7 14.5,7 Z M20.5,8 C21.0523,8 21.5,8.44772 21.5,9 C21.5,9.55228 21.0523,10 20.5,10 C19.9477,10 19.5,9.55228 19.5,9 C19.5,8.44772 19.9477,8 20.5,8 Z M20.5,2 C21.8807,2 23,3.11929 23,4.5 C23,5.29761 22.6254,6.00828 22.0464,6.46441 L21.4778078,6.93370624 C21.1508704,7.19557259 20.8122778,7.42188 20.5,7.42188 C19.875,7.42188 19.6406,6.93238 19.6406,6.57812 C19.6406,6.22387 19.851,5.84397 20.0252,5.62967 C20.2792,5.31724 20.5896,5.06607 20.8087,4.89342 C20.927,4.80021 21,4.65892 21,4.5 C21,4.22386 20.7761,4 20.5,4 C20.2239,4 20,4.22386 20,4.5 C20,5.05228 19.5523,5.5 19,5.5 C18.4477,5.5 18,5.05228 18,4.5 C18,3.11929 19.1193,2 20.5,2 Z" id="形状" fill="#09244B"></path>
            </g>
        </g>
    </g>
</svg>

<svg xmlns="http://www.w3.org/2000/svg" width="24" height="24"><g fill="none" fill-rule="evenodd"><path d="M24 0v24H0V0h24ZM12.594 23.258l-.012.002-.071.035-.02.004-.014-.004-.071-.036c-.01-.003-.019 0-.024.006l-.004.01-.017.428.005.02.01.013.104.074.015.004.012-.004.104-.074.012-.016.004-.017-.017-.427c-.002-.01-.009-.017-.016-.018Zm.264-.113-.014.002-.184.093-.01.01-.003.011.018.43.005.012.008.008.201.092c.012.004.023 0 .029-.008l.004-.014-.034-.614c-.003-.012-.01-.02-.02-.022Zm-.715.002a.023.023 0 0 0-.027.006l-.006.014-.034.614c0 .012.007.02.017.024l.015-.002.201-.093.01-.008.003-.011.018-.43-.003-.012-.01-.01-.184-.092Z"/><path fill="#09244B" d="M12 2c1.89 0 3.657.524 5.165 1.435A3.497 3.497 0 0 0 17 4.5a2 2 0 0 0 1.644 1.968l-.003.11c0 .346.1.751.356 1.103a2 2 0 0 0 2.884 2.766c.078.506.119 1.025.119 1.553 0 5.523-4.477 10-10 10S2 17.523 2 12 6.477 2 12 2Zm2.684 10.551c-.508.17-1.036.396-1.576.666-.276.138-.544.282-.801.428l-.377.22c-.223.134-.389.24-.485.303a1 1 0 1 0 1.11 1.664l.294-.186.11-.066c.327-.196.68-.392 1.044-.574.46-.23.904-.42 1.313-.557a1 1 0 1 0-.632-1.898ZM9.5 9a1.5 1.5 0 1 0 0 3 1.5 1.5 0 0 0 0-3Zm5-2a1.5 1.5 0 1 0 0 3 1.5 1.5 0 0 0 0-3Zm6 1a1 1 0 1 1 0 2 1 1 0 0 1 0-2Zm0-6a2.5 2.5 0 0 1 1.546 4.464l-.568.47c-.327.262-.666.488-.978.488-.625 0-.86-.49-.86-.844s.211-.734.385-.948c.254-.313.565-.564.784-.737A.5.5 0 1 0 20 4.5a1 1 0 1 1-2 0A2.5 2.5 0 0 1 20.5 2Z"/></g></svg>
